X: 162
T:Bourrée à huit
M:3/8
L:1/8
Q:100
C:trad
R:bourrée à 3 temps
O:France
K:G
d2^c|d2A/2B/2|cBA|BGD|d2^c|d2A/2B/2|cBA|G3:|
|:D|GFG|D2G|A>d B/2A/2|BGD|GFE|D2G|A2F|G3:||
W:
W: From "Falaleiro" http://home.t-online.de/home/pheld/homepage.htm

